svgs/regular/person-harassing.svg

<svg xmlns="http://www.w3.org/2000/svg" viewBox="0 0 576 512"><!--! Font Awesome Pro 6.3.0 by @fontawesome - https://fontawesome.com License - https://fontawesome.com/license (Commercial License) Copyright 2023 Fonticons, Inc. --><path d="M144 48a48 48 0 1 1 96 0 48 48 0 1 1 -96 0zM96 209.5L44.9 299.8c-6.5 11.5-21.2 15.6-32.7 9.1S-3.4 287.7 3.1 276.2L61.7 172.7c15.6-27.6 44.9-44.7 76.6-44.7h35c26 0 50.6 11.5 67.3 31.4l81.7 97.2c8.5 10.1 7.2 25.3-2.9 33.8s-25.3 7.2-33.8-2.9L224 214.2V488c0 13.3-10.7 24-24 24s-24-10.7-24-24V352H144V488c0 13.3-10.7 24-24 24s-24-10.7-24-24V209.5zm80-33.4c-.9-.1-1.8-.1-2.7-.1H144V304h32V176.1zM304 32h56c8.8 0 16 7.2 16 16s-7.2 16-16 16H304c-8.8 0-16-7.2-16-16s7.2-16 16-16zm96 208a48 48 0 1 1 96 0 48 48 0 1 1 -96 0zm116 56c33.1 0 60 26.9 60 60v96c0 31.8-24.7 57.8-56 59.9v.1c-.7 0-1.5 0-2.2 0c-.6 0-1.2 0-1.8 0c-5.7 0-11.1-.8-16.3-2.2c-19.6-4.4-37.5-15.1-50.7-30.7l-44.6-52.7-39.3 73c-6.3 11.7-20.8 16-32.5 9.8s-16-20.8-9.8-32.5l56-104c3.8-7 10.7-11.7 18.6-12.5s15.7 2.3 20.8 8.4L456 413V356c0-33.1 26.9-60 60-60zm1.4 167.9c6-.7 10.6-5.8 10.6-11.9V356c0-6.6-5.4-12-12-12s-12 5.4-12 12v96c0 5.2 3.2 9.5 7.8 11.2c1.8 .3 3.7 .6 5.6 .7zM265.7 104.8c4-7.9 13.6-11.1 21.5-7.2l48 24c7.9 4 11.1 13.6 7.2 21.5s-13.6 11.1-21.5 7.2l-48-24c-7.9-4-11.1-13.6-7.2-21.5z"/></svg>

<svg xmlns="http://www.w3.org/2000/svg" viewBox="0 0 576 512"><!--! Font Awesome Pro 6.2.0 by @fontawesome - https://fontawesome.com License - https://fontawesome.com/license (Commercial License) Copyright 2022 Fonticons, Inc. --><path d="M240 48C240 74.51 218.5 96 192 96C165.5 96 144 74.51 144 48C144 21.49 165.5 0 192 0C218.5 0 240 21.49 240 48zM96 209.5L44.89 299.8C38.37 311.4 23.73 315.4 12.19 308.9C.6512 302.4-3.411 287.7 3.114 276.2L61.66 172.7C77.27 145.1 106.5 128 138.3 128H173.3C199.3 128 223.9 139.5 240.6 159.4L322.4 256.6C330.9 266.7 329.6 281.8 319.5 290.4C309.3 298.9 294.2 297.6 285.6 287.4L224 214.2V488C224 501.3 213.3 512 200 512C186.7 512 176 501.3 176 488V352H144V488C144 501.3 133.3 512 120 512C106.7 512 96 501.3 96 488V209.5zM176 176.1C175.1 176 174.2 176 173.3 176H144V304H176L176 176.1zM360 32C368.8 32 376 39.16 376 48C376 56.84 368.8 64 360 64H304C295.2 64 287.1 56.84 287.1 48C287.1 39.16 295.2 32 304 32H360zM480 240C480 266.5 458.5 288 432 288C405.5 288 384 266.5 384 240C384 213.5 405.5 192 432 192C458.5 192 480 213.5 480 240zM576 356V452C576 483.8 551.3 509.8 520 511.9V512C519.3 512 518.5 511.1 517.8 511.1C517.2 511.1 516.6 512 516 512C510.3 512 504.9 511.2 499.7 509.8C480.1 505.4 462.2 494.7 449 479.1L404.4 426.4L365.1 499.4C358.8 511 344.3 515.4 332.6 509.1C320.1 502.8 316.6 488.3 322.9 476.6L378.9 372.6C382.6 365.6 389.6 360.1 397.5 360.1C405.4 359.3 413.2 362.4 418.3 368.5L456 413V356C456 322.9 482.9 296 516 296C549.1 296 576 322.9 576 356zM517.4 463.9C523.4 463.2 528 458.2 528 452V356C528 349.4 522.6 344 516 344C509.4 344 504 349.4 504 356V452C504 457.2 507.2 461.5 511.8 463.2C513.6 463.6 515.5 463.8 517.4 463.9V463.9zM265.7 104.8C269.6 96.94 279.3 93.74 287.2 97.69L335.2 121.7C343.1 125.6 346.3 135.3 342.3 143.2C338.4 151.1 328.7 154.3 320.8 150.3L272.8 126.3C264.9 122.4 261.7 112.7 265.7 104.8V104.8z"/></svg>
